X: 1
T: Blackberry Blossom, The
M: 4/4
L: 1/8
R: reel
K: Gmaj
ge|dBAc BGGA|B2{c}BA (3Bcd ge|dBAc BG~G2|ea{b}ag ageg|
dBAc BG~G2|DB{c}BA B2ge|dBAc BG~G2|ea{b}ag agef||
g2{a}gf gaba|~g3b agef|g2{a}gf gbag|ea{b}ag agef|
g2{a}gf gaba|~g3b a2ga|{b}agaf gfed|ea{b}ag a2||
